icons/todo-line.svg

<svg viewBox="0 0 24 24" fill="currentColor" xmlns="http://www.w3.org/2000/svg"><path d="M17 2H20C20.5523 2 21 2.44772 21 3V21C21 21.5523 20.5523 22 20 22H4C3.44772 22 3 21.5523 3 21V3C3 2.44772 3.44772 2 4 2H7V0H9V2H15V0H17V2ZM17 4V6H15V4H9V6H7V4H5V20H19V4H17ZM7 8H17V10H7V8ZM7 12H17V14H7V12Z"/></svg>

<svg xmlns="http://www.w3.org/2000/svg" viewBox="0 0 24 24">
    <g>
        <path fill="none" d="M0 0h24v24H0z"/>
        <path d="M17 2h3a1 1 0 0 1 1 1v18a1 1 0 0 1-1 1H4a1 1 0 0 1-1-1V3a1 1 0 0 1 1-1h3V0h2v2h6V0h2v2zm0 2v2h-2V4H9v2H7V4H5v16h14V4h-2zM7 8h10v2H7V8zm0 4h10v2H7v-2z"/>
    </g>
</svg>
